packages/core/src/svgs/qanx.svg

<svg width="24" height="24" viewBox="0 0 24 24" fill="none" xmlns="http://www.w3.org/2000/svg">
<g clip-path="url(#clip0_31_16674)">
<path d="M0 0H24V24H0V0Z" fill="url(#paint0_linear_31_16674)"/>
<path d="M7.92867 14.8841C7.35219 15.2452 6.68456 15.434 6.00438 15.4284C5.54959 15.4446 5.09634 15.367 4.67283 15.2004C4.24932 15.0339 3.8646 14.782 3.54261 14.4604C3.22063 14.1388 2.96825 13.7544 2.80119 13.3311C2.63413 12.9078 2.55595 12.4547 2.57152 11.9999C2.57152 9.98129 4.04581 8.57129 6.00009 8.57129C7.95438 8.57129 9.42867 9.98129 9.42867 11.9999C9.42867 12.917 9.12009 13.7141 8.60152 14.297L7.92867 14.8841ZM8.57152 11.9999C8.57152 10.5941 7.39295 9.42843 6.00009 9.42843C4.61152 9.42843 3.42867 10.5984 3.42867 11.9999C3.42867 13.4141 4.60724 14.5713 6.00009 14.5713C7.72724 14.5713 8.57152 13.1484 8.57152 11.9999ZM13.0544 8.57129L12.2615 9.10272L12.613 9.84843L13.7744 12.857H11.2287L10.8387 13.7141H14.1215L14.8115 15.4284H15.8572L13.0544 8.57129ZM21.0001 15.4284H20.0015L16.7144 10.1313V15.4284H15.8572V8.57129H16.8644L20.143 13.9199V8.57129H21.0001V15.4284Z" fill="white"/>
<path d="M6.79296 12.857H5.57153L8.04439 15.4284H9.25725L6.79296 12.857ZM13.0587 8.57129H12.0387L9.29582 15.4284H10.3415L13.0587 8.57129Z" fill="#00ADEE"/>
</g>
<defs>
<linearGradient id="paint0_linear_31_16674" x1="4.46571" y1="4.16143" x2="29.2071" y2="32.58" gradientUnits="userSpaceOnUse">
<stop stop-color="#1A1E21"/>
<stop offset="1" stop-color="#06060A"/>
</linearGradient>
<clipPath id="clip0_31_16674">
<rect width="24" height="24" fill="white"/>
</clipPath>
</defs>
</svg>

<svg xmlns="http://www.w3.org/2000/svg" width="24" height="24" fill="none" viewBox="0 0 24 24"><g clip-path="url(#a)"><path fill="url(#b)" d="M0 0h24v24H0z"/><path fill="#fff" d="M7.929 14.884a3.57 3.57 0 0 1-1.925.544A3.315 3.315 0 0 1 2.572 12C2.572 9.98 4.046 8.57 6 8.57S9.43 9.981 9.43 12c0 .917-.309 1.714-.827 2.297zM8.572 12c0-1.406-1.179-2.572-2.572-2.572-1.388 0-2.571 1.17-2.571 2.572 0 1.414 1.178 2.571 2.571 2.571 1.727 0 2.572-1.423 2.572-2.571m4.482-3.429-.793.532.352.745 1.161 3.009H11.23l-.39.857h3.282l.69 1.714h1.046zM21 15.428h-.998l-3.288-5.297v5.297h-.857V8.571h1.007l3.279 5.349V8.57H21z"/><path fill="#00ADEE" d="M6.793 12.857H5.572l2.472 2.571h1.213zm6.266-4.286h-1.02l-2.743 6.857h1.046z"/></g><defs><linearGradient id="b" x1="4.466" x2="29.207" y1="4.161" y2="32.58" gradientUnits="userSpaceOnUse"><stop stop-color="#1A1E21"/><stop offset="1" stop-color="#06060A"/></linearGradient><clipPath id="a"><path fill="#fff" d="M0 0h24v24H0z"/></clipPath></defs></svg>
